humanity-icon-theme/Humanity/actions/24/mail-reply-sender.svg

<?xml version="1.0" encoding="UTF-8" standalone="no"?>
<!-- Created with Inkscape (http://www.inkscape.org/) -->

<svg
   xmlns:svg="http://www.w3.org/2000/svg"
   xmlns="http://www.w3.org/2000/svg"
   xmlns:xlink="http://www.w3.org/1999/xlink"
   version="1.0"
   width="24"
   height="24"
   id="svg2562">
  <defs
     id="defs2564">
    <linearGradient
       id="linearGradient3712">
      <stop
         id="stop3714"
         style="stop-color:#bf8407;stop-opacity:1"
         offset="0" />
      <stop
         id="stop3716"
         style="stop-color:#bf8407;stop-opacity:0"
         offset="1" />
    </linearGradient>
    <linearGradient
       id="linearGradient5060-6-986-342-61">
      <stop
         id="stop4080"
         style="stop-color:#1e1e1e;stop-opacity:1"
         offset="0" />
      <stop
         id="stop4082"
         style="stop-color:#1e1e1e;stop-opacity:0"
         offset="1" />
    </linearGradient>
    <radialGradient
       cx="605.71429"
       cy="486.64789"
       r="117.14286"
       fx="605.71429"
       fy="486.64789"
       id="radialGradient2724-226-535-494"
       xlink:href="#linearGradient5060-6-986-342-61"
       gradientUnits="userSpaceOnUse"
       gradientTransform="matrix(-0.06553443,0,0,0.02470588,-21.829255,10.577352)" />
    <linearGradient
       id="linearGradient5060-6-252-476-367">
      <stop
         id="stop4074"
         style="stop-color:#1e1e1e;stop-opacity:1"
         offset="0" />
      <stop
         id="stop4076"
         style="stop-color:#1e1e1e;stop-opacity:0"
         offset="1" />
    </linearGradient>
    <radialGradient
       cx="605.71429"
       cy="486.64789"
       r="117.14286"
       fx="605.71429"
       fy="486.64789"
       id="radialGradient2722-303-187-273"
       xlink:href="#linearGradient5060-6-252-476-367"
       gradientUnits="userSpaceOnUse"
       gradientTransform="matrix(0.06553443,0,0,0.02470588,-69.175497,10.577352)" />
    <linearGradient
       id="linearGradient5048-7-668-934-892">
      <stop
         id="stop4066"
         style="stop-color:#1e1e1e;stop-opacity:0"
         offset="0" />
      <stop
         id="stop4068"
         style="stop-color:#1e1e1e;stop-opacity:1"
         offset="0.5" />
      <stop
         id="stop4070"
         style="stop-color:#1e1e1e;stop-opacity:0"
         offset="1" />
    </linearGradient>
    <linearGradient
       x1="302.85715"
       y1="366.64789"
       x2="302.85715"
       y2="609.50507"
       id="linearGradient2720-766-26-906"
       xlink:href="#linearGradient5048-7-668-934-892"
       gradientUnits="userSpaceOnUse"
       gradientTransform="matrix(0.06553443,0,0,0.02470588,-69.188394,10.577352)" />
    <linearGradient
       id="linearGradient2490-495-150-777">
      <stop
         id="stop4108"
         style="stop-color:#727272;stop-opacity:1"
         offset="0" />
      <stop
         id="stop4110"
         style="stop-color:#bebebe;stop-opacity:1"
         offset="1" />
    </linearGradient>
    <linearGradient
       x1="28.103424"
       y1="45.000065"
       x2="28.103424"
       y2="14.038458"
       id="linearGradient2477"
       xlink:href="#linearGradient2490-495-150-777"
       gradientUnits="userSpaceOnUse"
       gradientTransform="matrix(0.4666666,0,0,0.5006418,0.7999998,-3.7785543)" />
    <linearGradient
       id="linearGradient3242-967-12-570-862-307">
      <stop
         id="stop4498"
         style="stop-color:#ffffff;stop-opacity:1"
         offset="0" />
      <stop
         id="stop4502"
         style="stop-color:#cfcfcf;stop-opacity:1"
         offset="0.87426931" />
      <stop
         id="stop4504"
         style="stop-color:#999999;stop-opacity:1"
         offset="1" />
    </linearGradient>
    <linearGradient
       x1="20.052792"
       y1="8.163353"
       x2="19.875452"
       y2="45.60001"
       id="linearGradient2475"
       xlink:href="#linearGradient3242-967-12-570-862-307"
       gradientUnits="userSpaceOnUse"
       gradientTransform="matrix(0.4666666,0,0,0.4545454,0.7999999,-1.7272766)" />
    <linearGradient
       id="linearGradient3333-314-917-262">
      <stop
         id="stop4102"
         style="stop-color:#ffffff;stop-opacity:1"
         offset="0" />
      <stop
         id="stop4104"
         style="stop-color:#ffffff;stop-opacity:0"
         offset="1" />
    </linearGradient>
    <linearGradient
       x1="25.57654"
       y1="15.000002"
       x2="25.57654"
       y2="44.00053"
       id="linearGradient2472"
       xlink:href="#linearGradient3333-314-917-262"
       gradientUnits="userSpaceOnUse"
       gradientTransform="matrix(0.4418603,0,0,0.4642857,1.3953491,-2.6964344)" />
    <linearGradient
       x1="23.928667"
       y1="30.773148"
       x2="23.928667"
       y2="45.530704"
       id="linearGradient2469"
       xlink:href="#linearGradient3495-841-851-719"
       gradientUnits="userSpaceOnUse"
       gradientTransform="matrix(0.4657385,0,0,0.4850945,0.8223378,-3.1022334)" />
    <linearGradient
       id="linearGradient3495-841-851-719">
      <stop
         id="stop4120"
         style="stop-color:#1e1e1e;stop-opacity:1"
         offset="0" />
      <stop
         id="stop4122"
         style="stop-color:#1e1e1e;stop-opacity:0"
         offset="1" />
    </linearGradient>
    <linearGradient
       x1="23.903786"
       y1="35.75"
       x2="23.903786"
       y2="16.00676"
       id="linearGradient2466"
       xlink:href="#linearGradient3495-841-851-719"
       gradientUnits="userSpaceOnUse"
       gradientTransform="matrix(0.4657385,0,0,0.4850945,0.8223379,-1.4684474)" />
    <linearGradient
       id="linearGradient4222-0">
      <stop
         id="stop4224-8"
         style="stop-color:#ffffff;stop-opacity:1"
         offset="0" />
      <stop
         id="stop4226-8"
         style="stop-color:#ffffff;stop-opacity:0"
         offset="1" />
    </linearGradient>
    <linearGradient
       id="linearGradient2442">
      <stop
         id="stop2444"
         style="stop-color:#fcaf3e;stop-opacity:1"
         offset="0" />
      <stop
         id="stop2446"
         style="stop-color:#f57900;stop-opacity:0"
         offset="1" />
    </linearGradient>
    <linearGradient
       x1="28.442495"
       y1="12.162322"
       x2="47.224953"
       y2="12.162322"
       id="linearGradient2915"
       xlink:href="#linearGradient2442"
       gradientUnits="userSpaceOnUse"
       gradientTransform="matrix(-0.319447,0,0,-0.313352,24.08587,25.811235)" />
    <linearGradient
       x1="15"
       y1="19"
       x2="9"
       y2="19"
       id="linearGradient2917"
       xlink:href="#linearGradient3712"
       gradientUnits="userSpaceOnUse"
       gradientTransform="translate(0,1.000147)" />
    <linearGradient
       x1="22.488874"
       y1="27.182123"
       x2="3.5953195"
       y2="27.182123"
       id="linearGradient2919"
       xlink:href="#linearGradient4222-0"
       gradientUnits="userSpaceOnUse"
       gradientTransform="matrix(0.3704967,0,0,-0.3617496,7.667946,27.833269)" />
  </defs>
  <g
     transform="translate(0,-2)"
     id="layer1">
    <g
       transform="matrix(0.5004043,0,0,0.5,34.769587,7.582143)"
       id="g3511"
       style="stroke-width:1.03041875;stroke-miterlimit:4;stroke-dasharray:none">
      <rect
         width="31.643764"
         height="6.0000005"
         x="-61.324265"
         y="19.635714"
         id="rect2512"
         style="opacity:0.40206185;fill:url(#linearGradient2720-766-26-906);fill-opacity:1;fill-rule:nonzero;stroke:none;stroke-width:1.03041875;marker:none;visibility:visible;display:inline;overflow:visible" />
      <path
         d="m -29.680498,19.635919 c 0,0 0,5.999669 0,5.999669 3.374861,0.01129 8.158771,-1.344221 8.158769,-3.000221 0,-1.655999 -3.76609,-2.999448 -8.158769,-2.999448 z"
         id="path2514"
         style="opacity:0.40206185;fill:url(#radialGradient2722-303-187-273);fill-opacity:1;fill-rule:nonzero;stroke:none;stroke-width:1.03041875;marker:none;visibility:visible;display:inline;overflow:visible" />
      <path
         d="m -61.324263,19.635919 c 0,0 0,5.999669 0,5.999669 -3.374861,0.01129 -8.158771,-1.344221 -8.158771,-3.000221 0,-1.655999 3.766091,-2.999448 8.158771,-2.999448 z"
         id="path2516"
         style="opacity:0.40206185;fill:url(#radialGradient2724-226-535-494);fill-opacity:1;fill-rule:nonzero;stroke:none;stroke-width:1.03041875;marker:none;visibility:visible;display:inline;overflow:visible" />
    </g>
    <rect
       width="20.992958"
       height="12.992959"
       rx="0.46666664"
       ry="0.45454553"
       x="1.5070423"
       y="5.507041"
       id="rect2396"
       style="fill:url(#linearGradient2475);fill-opacity:1;fill-rule:evenodd;stroke:url(#linearGradient2477);stroke-width:1;stroke-linecap:square;stroke-linejoin:round;stroke-miterlimit:4;stroke-opacity:1;stroke-dasharray:none;stroke-dashoffset:0;marker:none;visibility:visible;display:inline;overflow:visible;enable-background:accumulate" />
    <rect
       width="19"
       height="11.140846"
       rx="0.036476243"
       ry="0.035004593"
       x="2.5"
       y="6.3591533"
       id="rect3331"
       style="opacity:0.4;fill:none;stroke:url(#linearGradient2472);stroke-width:0.99999994;stroke-linecap:square;stroke-linejoin:miter;stroke-miterlimit:4;stroke-opacity:1;stroke-dasharray:none;stroke-dashoffset:0;marker:none;visibility:visible;display:inline;overflow:visible;enable-background:accumulate" />
    <path
       d="M 8.6224071,13.01303 2.1222032,18.468628"
       id="path3341"
       style="opacity:0.5;fill:none;stroke:url(#linearGradient2469);stroke-width:1;stroke-linecap:butt;stroke-linejoin:miter;stroke-miterlimit:4;stroke-opacity:1;stroke-dasharray:none;stroke-dashoffset:0;marker:none;visibility:visible;display:inline;overflow:visible;enable-background:accumulate" />
    <path
       d="M 1.8491563,6.1459463 12.000062,15.281999 21.937208,6.1459463"
       id="path3493"
       style="opacity:0.5;fill:none;stroke:url(#linearGradient2466);stroke-width:1.00000012;stroke-linecap:butt;stroke-linejoin:miter;stroke-miterlimit:4;stroke-opacity:1;stroke-dasharray:none" />
    <path
       d="m 9.499,21.500147 7.001,0 0,3.000853 7.000853,-6.001 -7.000853,-6 0,3.000147 -7.001,0"
       id="path2911"
       style="fill:url(#linearGradient2915);fill-opacity:1;fill-rule:nonzero;stroke:url(#linearGradient2917);stroke-width:0.99800003;stroke-linecap:butt;stroke-linejoin:round;stroke-miterlimit:4;stroke-opacity:1;stroke-dasharray:none;stroke-dashoffset:0;marker:none;visibility:visible;display:inline;overflow:visible" />
    <path
       d="m 9.5,20.500147 8,0 0,1.75121 L 22.045115,18.5 17.5,14.7 l 0,1.800147 -8,0"
       id="path2913"
       style="opacity:0.3;fill:none;stroke:url(#linearGradient2919);stroke-width:0.99829447;stroke-linecap:butt;stroke-linejoin:miter;stroke-miterlimit:4;stroke-opacity:1;stroke-dasharray:none;stroke-dashoffset:0;marker:none;visibility:visible;display:inline;overflow:visible" />
  </g>
</svg>

<?xml version="1.0" encoding="UTF-8" standalone="no"?>
<!-- Created with Inkscape (http://www.inkscape.org/) -->
<svg
   xmlns:svg="http://www.w3.org/2000/svg"
   xmlns="http://www.w3.org/2000/svg"
   xmlns:xlink="http://www.w3.org/1999/xlink"
   version="1.0"
   width="24"
   height="24"
   id="svg3319">
  <defs
     id="defs3321">
    <linearGradient
       id="linearGradient5060-6-986-342-61">
      <stop
         id="stop4080"
         style="stop-color:#1e1e1e;stop-opacity:1"
         offset="0" />
      <stop
         id="stop4082"
         style="stop-color:#1e1e1e;stop-opacity:0"
         offset="1" />
    </linearGradient>
    <radialGradient
       cx="605.71429"
       cy="486.64789"
       r="117.14286"
       fx="605.71429"
       fy="486.64789"
       id="radialGradient2724-226-535-494"
       xlink:href="#linearGradient5060-6-986-342-61"
       gradientUnits="userSpaceOnUse"
       gradientTransform="matrix(-6.553443e-2,0,0,2.470588e-2,-21.829255,10.577352)" />
    <linearGradient
       id="linearGradient5060-6-252-476-367">
      <stop
         id="stop4074"
         style="stop-color:#1e1e1e;stop-opacity:1"
         offset="0" />
      <stop
         id="stop4076"
         style="stop-color:#1e1e1e;stop-opacity:0"
         offset="1" />
    </linearGradient>
    <radialGradient
       cx="605.71429"
       cy="486.64789"
       r="117.14286"
       fx="605.71429"
       fy="486.64789"
       id="radialGradient2722-303-187-273"
       xlink:href="#linearGradient5060-6-252-476-367"
       gradientUnits="userSpaceOnUse"
       gradientTransform="matrix(6.553443e-2,0,0,2.470588e-2,-69.175497,10.577352)" />
    <linearGradient
       id="linearGradient5048-7-668-934-892">
      <stop
         id="stop4066"
         style="stop-color:#1e1e1e;stop-opacity:0"
         offset="0" />
      <stop
         id="stop4068"
         style="stop-color:#1e1e1e;stop-opacity:1"
         offset="0.5" />
      <stop
         id="stop4070"
         style="stop-color:#1e1e1e;stop-opacity:0"
         offset="1" />
    </linearGradient>
    <linearGradient
       x1="302.85715"
       y1="366.64789"
       x2="302.85715"
       y2="609.50507"
       id="linearGradient2720-766-26-906"
       xlink:href="#linearGradient5048-7-668-934-892"
       gradientUnits="userSpaceOnUse"
       gradientTransform="matrix(6.553443e-2,0,0,2.470588e-2,-69.188394,10.577352)" />
    <linearGradient
       id="linearGradient2490-495-150-777">
      <stop
         id="stop4108"
         style="stop-color:#727272;stop-opacity:1"
         offset="0" />
      <stop
         id="stop4110"
         style="stop-color:#bebebe;stop-opacity:1"
         offset="1" />
    </linearGradient>
    <linearGradient
       x1="28.103424"
       y1="45.000065"
       x2="28.103424"
       y2="14.038458"
       id="linearGradient2477"
       xlink:href="#linearGradient2490-495-150-777"
       gradientUnits="userSpaceOnUse"
       gradientTransform="matrix(0.4666666,0,0,0.5006418,0.7999998,-3.7785543)" />
    <linearGradient
       id="linearGradient3242-967-12-570-862-307">
      <stop
         id="stop4498"
         style="stop-color:#ffffff;stop-opacity:1"
         offset="0" />
      <stop
         id="stop4502"
         style="stop-color:#cfcfcf;stop-opacity:1"
         offset="0.87426931" />
      <stop
         id="stop4504"
         style="stop-color:#999999;stop-opacity:1"
         offset="1" />
    </linearGradient>
    <linearGradient
       x1="20.052792"
       y1="8.163353"
       x2="19.875452"
       y2="45.60001"
       id="linearGradient2475"
       xlink:href="#linearGradient3242-967-12-570-862-307"
       gradientUnits="userSpaceOnUse"
       gradientTransform="matrix(0.4666666,0,0,0.4545454,0.7999999,-1.7272766)" />
    <linearGradient
       id="linearGradient3333-314-917-262">
      <stop
         id="stop4102"
         style="stop-color:#ffffff;stop-opacity:1"
         offset="0" />
      <stop
         id="stop4104"
         style="stop-color:#ffffff;stop-opacity:0"
         offset="1" />
    </linearGradient>
    <linearGradient
       x1="25.57654"
       y1="15.000002"
       x2="25.57654"
       y2="44.00053"
       id="linearGradient2472"
       xlink:href="#linearGradient3333-314-917-262"
       gradientUnits="userSpaceOnUse"
       gradientTransform="matrix(0.4418603,0,0,0.4642857,1.3953491,-2.6964344)" />
    <linearGradient
       x1="23.928667"
       y1="30.773148"
       x2="23.928667"
       y2="45.530704"
       id="linearGradient2469"
       xlink:href="#linearGradient3495-841-851-719"
       gradientUnits="userSpaceOnUse"
       gradientTransform="matrix(0.4657385,0,0,0.4850945,0.8223378,-3.1022334)" />
    <linearGradient
       id="linearGradient3495-841-851-719">
      <stop
         id="stop4120"
         style="stop-color:#1e1e1e;stop-opacity:1"
         offset="0" />
      <stop
         id="stop4122"
         style="stop-color:#1e1e1e;stop-opacity:0"
         offset="1" />
    </linearGradient>
    <linearGradient
       x1="23.903786"
       y1="35.75"
       x2="23.903786"
       y2="16.00676"
       id="linearGradient2466"
       xlink:href="#linearGradient3495-841-851-719"
       gradientUnits="userSpaceOnUse"
       gradientTransform="matrix(0.4657385,0,0,0.4850945,0.8223379,-1.4684474)" />
    <linearGradient
       id="linearGradient3303">
      <stop
         id="stop3305"
         style="stop-color:#cc7032;stop-opacity:1"
         offset="0" />
      <stop
         id="stop3307"
         style="stop-color:#bb2d13;stop-opacity:1"
         offset="0.8271265" />
      <stop
         id="stop3309"
         style="stop-color:#a87300;stop-opacity:0"
         offset="1" />
    </linearGradient>
    <linearGradient
       x1="24.003723"
       y1="19"
       x2="9"
       y2="19"
       id="linearGradient2917"
       xlink:href="#linearGradient3303"
       gradientUnits="userSpaceOnUse"
       gradientTransform="translate(0,1.000147)" />
    <linearGradient
       id="linearGradient3311">
      <stop
         id="stop3313"
         style="stop-color:#ecb56c;stop-opacity:1"
         offset="0" />
      <stop
         id="stop3315"
         style="stop-color:#e86225;stop-opacity:1"
         offset="0.82442904" />
      <stop
         id="stop3317"
         style="stop-color:#b07c0b;stop-opacity:0"
         offset="1" />
    </linearGradient>
    <linearGradient
       x1="0.26926842"
       y1="12.162322"
       x2="47.224953"
       y2="12.162322"
       id="linearGradient2915"
       xlink:href="#linearGradient3311"
       gradientUnits="userSpaceOnUse"
       gradientTransform="matrix(-0.319447,0,0,-0.313352,24.08587,25.811235)" />
    <linearGradient
       id="linearGradient4222-0">
      <stop
         id="stop4224-8"
         style="stop-color:#ffffff;stop-opacity:1"
         offset="0" />
      <stop
         id="stop4226-8"
         style="stop-color:#ffffff;stop-opacity:0"
         offset="1" />
    </linearGradient>
    <linearGradient
       x1="32.23851"
       y1="37.684677"
       x2="21.87499"
       y2="18.892372"
       id="linearGradient2919"
       xlink:href="#linearGradient4222-0"
       gradientUnits="userSpaceOnUse"
       gradientTransform="matrix(0.3704967,0,0,-0.3617496,7.667946,27.833269)" />
  </defs>
  <g
     id="layer1">
    <g
       transform="matrix(0.5004043,0,0,0.5,34.769587,5.582143)"
       id="g3511"
       style="stroke-width:1.03041875;stroke-miterlimit:4;stroke-dasharray:none">
      <rect
         width="31.643764"
         height="6.0000005"
         x="-61.324265"
         y="19.635714"
         id="rect2512"
         style="opacity:0.40206185;fill:url(#linearGradient2720-766-26-906);fill-opacity:1;fill-rule:nonzero;stroke:none;stroke-width:1.03041875;marker:none;visibility:visible;display:inline;overflow:visible" />
      <path
         d="M -29.680498,19.635919 C -29.680498,19.635919 -29.680498,25.635588 -29.680498,25.635588 C -26.305637,25.646878 -21.521727,24.291367 -21.521729,22.635367 C -21.521729,20.979368 -25.287819,19.635919 -29.680498,19.635919 z"
         id="path2514"
         style="opacity:0.40206185;fill:url(#radialGradient2722-303-187-273);fill-opacity:1;fill-rule:nonzero;stroke:none;stroke-width:1.03041875;marker:none;visibility:visible;display:inline;overflow:visible" />
      <path
         d="M -61.324263,19.635919 C -61.324263,19.635919 -61.324263,25.635588 -61.324263,25.635588 C -64.699124,25.646878 -69.483034,24.291367 -69.483034,22.635367 C -69.483034,20.979368 -65.716943,19.635919 -61.324263,19.635919 L -61.324263,19.635919 z"
         id="path2516"
         style="opacity:0.40206185;fill:url(#radialGradient2724-226-535-494);fill-opacity:1;fill-rule:nonzero;stroke:none;stroke-width:1.03041875;marker:none;visibility:visible;display:inline;overflow:visible" />
    </g>
    <rect
       width="20.992958"
       height="12.992959"
       rx="0.46666664"
       ry="0.45454553"
       x="1.5070423"
       y="5.507041"
       transform="translate(0,-2)"
       id="rect2396"
       style="fill:url(#linearGradient2475);fill-opacity:1;fill-rule:evenodd;stroke:url(#linearGradient2477);stroke-width:1;stroke-linecap:square;stroke-linejoin:round;marker:none;stroke-miterlimit:4;stroke-dasharray:none;stroke-dashoffset:0;stroke-opacity:1;visibility:visible;display:inline;overflow:visible;enable-background:accumulate" />
    <rect
       width="19"
       height="11.140846"
       rx="0.036476243"
       ry="0.035004593"
       x="2.5"
       y="6.3591533"
       transform="translate(0,-2)"
       id="rect3331"
       style="opacity:0.4;fill:none;stroke:url(#linearGradient2472);stroke-width:0.99999994;stroke-linecap:square;stroke-linejoin:miter;marker:none;stroke-miterlimit:4;stroke-dasharray:none;stroke-dashoffset:0;stroke-opacity:1;visibility:visible;display:inline;overflow:visible;enable-background:accumulate" />
    <path
       d="M 8.6224071,13.01303 L 2.1222032,18.468628"
       transform="translate(0,-2)"
       id="path3341"
       style="opacity:0.5;fill:none;stroke:url(#linearGradient2469);stroke-width:1;stroke-linecap:butt;stroke-linejoin:miter;marker:none;stroke-miterlimit:4;stroke-dasharray:none;stroke-dashoffset:0;stroke-opacity:1;visibility:visible;display:inline;overflow:visible;enable-background:accumulate" />
    <path
       d="M 1.8491563,6.1459463 L 12.000062,15.281999 L 21.937208,6.1459463"
       transform="translate(0,-2)"
       id="path3493"
       style="opacity:0.5;fill:none;stroke:url(#linearGradient2466);stroke-width:1.00000012;stroke-linecap:butt;stroke-linejoin:miter;stroke-miterlimit:4;stroke-dasharray:none;stroke-opacity:1" />
    <path
       d="M 9.499,21.500147 L 16.5,21.500147 L 16.5,24.501 L 23.500853,18.5 L 16.5,12.5 L 16.5,15.500147 L 9.499,15.500147"
       transform="translate(0,-2)"
       id="path2911"
       style="fill:url(#linearGradient2915);fill-opacity:1;fill-rule:nonzero;stroke:url(#linearGradient2917);stroke-width:0.99800003;stroke-linecap:butt;stroke-linejoin:round;marker:none;stroke-miterlimit:4;stroke-dasharray:none;stroke-dashoffset:0;stroke-opacity:1;visibility:visible;display:inline;overflow:visible" />
    <path
       d="M 9.5,20.500147 L 17.5,20.500147 L 17.5,22.251357 L 22.045115,18.5 L 17.5,14.7 L 17.5,16.500147 L 9.5,16.500147"
       transform="translate(0,-2)"
       id="path2913"
       style="opacity:0.3;fill:none;stroke:url(#linearGradient2919);stroke-width:0.99829447;stroke-linecap:butt;stroke-linejoin:miter;marker:none;stroke-miterlimit:4;stroke-dasharray:none;stroke-dashoffset:0;stroke-opacity:1;visibility:visible;display:inline;overflow:visible" />
  </g>
</svg>
